X: 1
T: John Anderson's Reel
C: Bobby Frew
R: reel
Z: 2006 John Chambers <jc:trillian.mit.edu>
M: C|
L: 1/8
K: A
E2 \
| "A"A2Ac "E7"B2Bd | "A"ceag aece | "D"d2fd "A"c2ec | "B7"Be^df "E7"e=dcB |
| "A"A2Ac "E7"B2Bd | "A"ceag aece | "D"dfed "A"cedc | "E7"BdcB "A"A2 :|
|: cd \
| "A"e2ef edcB | ABcd e2dc | "D"d2de "(Bm)"dcBA | "E7"GABc B2cd |
| "A"e2ef edcB | ABcd "A7"e2cA | "D"dfed "A"cedc | "E7"BdcB "A"A2 :|
